!!! OTL: Berkowitz45
!!! Chapter: 1
!!! Section: I
!!! Page: 13
!!! Mode: 
!!! Encoder: DJB
**kern
*staff1
*I"Piano
=1-
*clefF4
*k[b-e-a-d-]
*A-:
*M4/4
4A-\
4E-\
4A-\
4E-\
=2
8A-\L
8G\
8A-\
8B-\J
4A-\
4E-\
=3
8F\L
8E-\
8F\
8G\J
8A-\L
8G\
8A-\
8B-\J
=4
4c\
4E-\
4F\
4G\
=5
8A-\L
8G\
8A-\
8B-\J
8c\L
8B-\
8c\
8d-\J
=6
4e-\
4c\
4A-\
4c\
=7
!!linebreak:original
8B-\L
8A-\
8B-\
8c\J
4A-\
4G\
=8
8F\L
8E-\
8F\
8G\J
4A-\
4E-\
=9
2A-\
2AA-/
==
*-
